X: 32725
T: Poll Ha'Penny
R: hornpipe
M: 4/4
K: Amixolydian
|:AB|=cAAG A2Bc|d=cAF G2^cd|edcA dcAG|A2AG A2de|
f2fd e2ec|d2cd efge|aged cAGB|A2AG A2:|
|:ef|g2ga gfed|cdef gedg|e2a2 a2ag|e2a2 a2ag|
f2fd e2ec|d2cd efge|aged cAGB|A2AG A2:|

